icons/stethoscope-fill.svg

<svg viewBox="0 0 24 24" fill="currentColor" xmlns="http://www.w3.org/2000/svg">
    <path d="M8 3V5H6V9C6 11.2091 7.79086 13 10 13C12.2091 13 14 11.2091 14 9V5H12V3H15C15.5523 3 16 3.44772 16 4V9C16 11.9727 13.8381 14.4405 11.0008 14.9169L11 16.5C11 18.433 12.567 20 14.5 20C15.9973 20 17.275 19.0598 17.7749 17.7375C16.7283 17.27 16 16.2201 16 15C16 13.3431 17.3431 12 19 12C20.6569 12 22 13.3431 22 15C22 16.3711 21.0802 17.5274 19.824 17.8854C19.2102 20.252 17.0592 22 14.5 22C11.4624 22 9 19.5376 9 16.5L9.00019 14.9171C6.16238 14.4411 4 11.9731 4 9V4C4 3.44772 4.44772 3 5 3H8Z"/>
</svg>

<svg xmlns="http://www.w3.org/2000/svg" viewBox="0 0 24 24">
    <g>
        <path fill="none" d="M0 0H24V24H0z"/>
        <path d="M8 3v2H6v4c0 2.21 1.79 4 4 4s4-1.79 4-4V5h-2V3h3c.552 0 1 .448 1 1v5c0 2.973-2.162 5.44-5 5.917V16.5c0 1.933 1.567 3.5 3.5 3.5 1.497 0 2.775-.94 3.275-2.263C16.728 17.27 16 16.22 16 15c0-1.657 1.343-3 3-3s3 1.343 3 3c0 1.371-.92 2.527-2.176 2.885C19.21 20.252 17.059 22 14.5 22 11.462 22 9 19.538 9 16.5v-1.583C6.162 14.441 4 11.973 4 9V4c0-.552.448-1 1-1h3z"/>
    </g>
</svg>
